polaris-icons/icons/new-icons/FooterMajor.svg

<svg width="20" height="20" viewBox="0 0 20 20" fill="none" xmlns="http://www.w3.org/2000/svg">
<path d="M3.5 5.25C3.5 4.2835 4.2835 3.5 5.25 3.5H5.75C6.16421 3.5 6.5 3.83579 6.5 4.25C6.5 4.66421 6.16421 5 5.75 5H5.25C5.11193 5 5 5.11193 5 5.25V5.75C5 6.16421 4.66421 6.5 4.25 6.5C3.83579 6.5 3.5 6.16421 3.5 5.75V5.25Z" fill="#4A4A4A"/>
<path fill-rule="evenodd" clip-rule="evenodd" d="M3.5 13.25C3.5 12.2835 4.2835 11.5 5.25 11.5H14.75C15.7165 11.5 16.5 12.2835 16.5 13.25V14.75C16.5 15.7165 15.7165 16.5 14.75 16.5H5.25C4.2835 16.5 3.5 15.7165 3.5 14.75V13.25ZM5.25 13C5.11193 13 5 13.1119 5 13.25V14.75C5 14.8881 5.11193 15 5.25 15H14.75C14.8881 15 15 14.8881 15 14.75V13.25C15 13.1119 14.8881 13 14.75 13H5.25Z" fill="#4A4A4A"/>
<path d="M3.5 8.75C3.5 9.7165 4.2835 10.5 5.25 10.5H5.75C6.16421 10.5 6.5 10.1642 6.5 9.75C6.5 9.33579 6.16421 9 5.75 9H5.25C5.11193 9 5 8.88807 5 8.75V8.25C5 7.83579 4.66421 7.5 4.25 7.5C3.83579 7.5 3.5 7.83579 3.5 8.25V8.75Z" fill="#4A4A4A"/>
<path d="M14.75 3.5C15.7165 3.5 16.5 4.2835 16.5 5.25V5.75C16.5 6.16421 16.1642 6.5 15.75 6.5C15.3358 6.5 15 6.16421 15 5.75V5.25C15 5.11193 14.8881 5 14.75 5H14.25C13.8358 5 13.5 4.66421 13.5 4.25C13.5 3.83579 13.8358 3.5 14.25 3.5H14.75Z" fill="#4A4A4A"/>
<path d="M14.75 10.5C15.7165 10.5 16.5 9.7165 16.5 8.75V8.25C16.5 7.83579 16.1642 7.5 15.75 7.5C15.3358 7.5 15 7.83579 15 8.25V8.75C15 8.88807 14.8881 9 14.75 9H14.25C13.8358 9 13.5 9.33579 13.5 9.75C13.5 10.1642 13.8358 10.5 14.25 10.5H14.75Z" fill="#4A4A4A"/>
<path d="M11.75 4.25C11.75 4.66421 11.4142 5 11 5L9 5C8.58579 5 8.25 4.66421 8.25 4.25C8.25 3.83579 8.58579 3.5 9 3.5H11C11.4142 3.5 11.75 3.83579 11.75 4.25Z" fill="#4A4A4A"/>
<path d="M11 10.5C11.4142 10.5 11.75 10.1642 11.75 9.75C11.75 9.33579 11.4142 9 11 9H9C8.58579 9 8.25 9.33579 8.25 9.75C8.25 10.1642 8.58579 10.5 9 10.5H11Z" fill="#4A4A4A"/>
</svg>

<svg viewBox="0 0 20 20" xmlns="http://www.w3.org/2000/svg"><path d="M3.5 5.25c0-.966.784-1.75 1.75-1.75h.5a.75.75 0 0 1 0 1.5h-.5a.25.25 0 0 0-.25.25v.5a.75.75 0 0 1-1.5 0v-.5Z" fill="#5C5F62"/><path fill-rule="evenodd" d="M3.5 13.25c0-.966.784-1.75 1.75-1.75h9.5c.966 0 1.75.784 1.75 1.75v1.5a1.75 1.75 0 0 1-1.75 1.75h-9.5a1.75 1.75 0 0 1-1.75-1.75v-1.5Zm1.75-.25a.25.25 0 0 0-.25.25v1.5c0 .138.112.25.25.25h9.5a.25.25 0 0 0 .25-.25v-1.5a.25.25 0 0 0-.25-.25h-9.5Z" fill="#5C5F62"/><path d="M3.5 8.75c0 .966.784 1.75 1.75 1.75h.5a.75.75 0 0 0 0-1.5h-.5a.25.25 0 0 1-.25-.25v-.5a.75.75 0 0 0-1.5 0v.5Z" fill="#5C5F62"/><path d="M14.75 3.5c.966 0 1.75.784 1.75 1.75v.5a.75.75 0 0 1-1.5 0v-.5a.25.25 0 0 0-.25-.25h-.5a.75.75 0 0 1 0-1.5h.5Z" fill="#5C5F62"/><path d="M14.75 10.5a1.75 1.75 0 0 0 1.75-1.75v-.5a.75.75 0 0 0-1.5 0v.5a.25.25 0 0 1-.25.25h-.5a.75.75 0 0 0 0 1.5h.5Z" fill="#5C5F62"/><path d="M11.75 4.25a.75.75 0 0 1-.75.75h-2a.75.75 0 0 1 0-1.5h2a.75.75 0 0 1 .75.75Z" fill="#5C5F62"/><path d="M11 10.5a.75.75 0 0 0 0-1.5h-2a.75.75 0 0 0 0 1.5h2Z" fill="#5C5F62"/></svg>
